X: 403
T:Plusieurs regretz
N: Derived from Jos2921-Plusieurs_regretz.krn
C: Josquin des Prez
%%abc-version 2.0
%%abcx-abcm2ps-target-version 5.9.1 (29 Sep 2008)
%%abc-creator hum2abc beta
%%abcx-conversion-date 2019/02/12 16:15:55
%%abc-edited-by Jesse Rodin
%%abc-edited-by Will Watson 30/10/2011
%%abcx-initial-encoding-date 2011/10/30/
%%humdrum-veritas 3524117686
%%humdrum-veritas-data 2429158460
%%linebreak <none>
%%barnumbers 0
L: 1/4
M: 2/1
Q: 1/2=120
V: 1 clef=treble
V: 2 clef=treble-8
V: 3 clef=treble-8
V: 4 clef=bass
V: 5 clef=bass
K: C
[V:1] D4D3E | 
[V:2] z8 | 
[V:3] z4d4 | 
[V:4] z8 | 
[V:5] z8 | 
[V:1] FGA3^GG^F | 
[V:2] z8 | 
[V:3] d3cB4 | 
[V:4] z8 | 
[V:5] z8 | 
[V:1] A4z2F2 | 
[V:2] z8 | 
[V:3] A4F3G | 
[V:4] D,4D,3E, | 
[V:5] z4D,4 | 
[V:1] F3ED4 | 
[V:2] z8 | 
[V:3] A4D4 | 
[V:4] F,G,A,3^G,G,^F, | 
[V:5] D,3C,B,,4 | 
[V:1] C4z2c2 | 
[V:2] A4A3B | 
[V:3] E4c3d | 
[V:4] A,8 | 
[V:5] A,,4z2A,2 | 
[V:1] c3BA4 | 
[V:2] cde3ddc | 
[V:3] e4A4 | 
[V:4] z8 | 
[V:5] A,3G,F,4 | 
[V:1] G8 | 
[V:2] e8 | 
[V:3] B2E2G3A | 
[V:4] z4E,4 | 
[V:5] E,8 | 
[V:1] z4G4 | 
[V:2] z8 | 
[V:3] B2EFGAB2 | 
[V:4] G,4G,2G,2- | 
[V:5] z4E,4 | 
[V:1] G4G4 | 
[V:2] z4B4 | 
[V:3] E2e3fge | 
[V:4] G,F,E,D,E,4 | 
[V:5] G,4G,4 | 
[V:1] A3GA2B2- | 
[V:2] d4d2d2- | 
[V:3] f2d2f4 | 
[V:4] D,8 | 
[V:5] F,6E,D, | 
[V:1] BAA3^GG^F | 
[V:2] dcBAB4 | 
[V:3] e3de4 | 
[V:4] z8 | 
[V:5] E,3F,E,4 | 
[V:1] A4z4 | 
[V:2] A8 | 
[V:3] c8 | 
[V:4] z8 | 
[V:5] A,,8 | 
[V:1] D4D3E | 
[V:2] z8 | 
[V:3] z4d4 | 
[V:4] z8 | 
[V:5] z8 | 
[V:1] FGA4^G2 | 
[V:2] z8 | 
[V:3] d3cB4 | 
[V:4] z8 | 
[V:5] z8 | 
[V:1] A4z2F2 | 
[V:2] z8 | 
[V:3] A4F3G | 
[V:4] D,4D,3E, | 
[V:5] z4D,4 | 
[V:1] F3ED4 | 
[V:2] z8 | 
[V:3] A4D4 | 
[V:4] F,G,A,3^G,G,^F, | 
[V:5] D,3C,B,,4 | 
[V:1] C4z2c2 | 
[V:2] A4A3B | 
[V:3] E4c3d | 
[V:4] A,8 | 
[V:5] A,,4z2A,2 | 
[V:1] c3BA4 | 
[V:2] cde3ddc | 
[V:3] e4A4 | 
[V:4] z8 | 
[V:5] A,3G,F,4 | 
[V:1] G8 | 
[V:2] e8 | 
[V:3] B2E2G3A | 
[V:4] z4E,4 | 
[V:5] E,8 | 
[V:1] z4G4 | 
[V:2] z8 | 
[V:3] B2EFGAB2 | 
[V:4] G,4G,2G,2- | 
[V:5] z4E,4 | 
[V:1] G4G4 | 
[V:2] z4B4 | 
[V:3] E2e3fge | 
[V:4] G,F,E,D,E,4 | 
[V:5] G,4G,4 | 
[V:1] A3GA2B2- | 
[V:2] d4d2d2- | 
[V:3] f2d2f4 | 
[V:4] D,8 | 
[V:5] F,6E,D, | 
[V:1] BAA3^GG^F | 
[V:2] dcBAB4 | 
[V:3] e3de4 | 
[V:4] z8 | 
[V:5] E,3F,E,4 | 
[V:1] A8 | 
[V:2] A8 | 
[V:3] c2e2e2e2- | 
[V:4] z4E,4 | 
[V:5] A,,8 | 
[V:1] z4A,4 | 
[V:2] z8 | 
[V:3] e2dcd4 | 
[V:4] F,4F,4 | 
[V:5] D,8 | 
[V:1] B,4B,4 | 
[V:2] z4B4 | 
[V:3] e8 | 
[V:4] E,8 | 
[V:5] z8 | 
[V:1] A,8 | 
[V:2] c4c4 | 
[V:3] z2e2edef | 
[V:4] z4A,4 | 
[V:5] z4A,,4 | 
[V:1] z4B4 | 
[V:2] B8 | 
[V:3] geg3fed | 
[V:4] G,4G,4 | 
[V:5] E,4E,4 | 
[V:1] c6c2 | 
[V:2] z4e4 | 
[V:3] c2A2A2A2 | 
[V:4] A,6E,2 | 
[V:5] A,,8 | 
[V:1] B4A4 | 
[V:2] d4d4 | 
[V:3] B2G2A4 | 
[V:4] G,3A,F,4 | 
[V:5] z4D,4 | 
[V:1] G3AB4 | 
[V:2] e6B2 | 
[V:3] B3EEFGA | 
[V:4] E,8 | 
[V:5] G,6G,2 | 
[V:1] z2B2c2A2 | 
[V:2] d3ec4 | 
[V:3] B3Ee4 | 
[V:4] z8 | 
[V:5] G,2G,2A,4 | 
[V:1] A2^G^FG4 | 
[V:2] B8 | 
[V:3] z2e2e2e2- | 
[V:4] z4E,4 | 
[V:5] E,8 | 
[V:1] A4A,4 | 
[V:2] z8 | 
[V:3] e2dcd4 | 
[V:4] F,4F,4 | 
[V:5] z2A,2A,2A,2- | 
[V:1] B,4B,4 | 
[V:2] z4B4 | 
[V:3] e8 | 
[V:4] E,8 | 
[V:5] A,2^G,^F,G,4 | 
[V:1] A,8 | 
[V:2] c4c4 | 
[V:3] z2e2edef | 
[V:4] z4A,4 | 
[V:5] A,6A,,2 | 
[V:1] z4B4 | 
[V:2] B8 | 
[V:3] geg3fed | 
[V:4] G,4G,4 | 
[V:5] E,4E,4 | 
[V:1] c6c2 | 
[V:2] z4e4 | 
[V:3] c2A2A2A2 | 
[V:4] A,6E,2 | 
[V:5] A,,8 | 
[V:1] B4A4 | 
[V:2] d4d4 | 
[V:3] B2G2A4 | 
[V:4] G,3A,F,4 | 
[V:5] z4D,4 | 
[V:1] G3AB4- | 
[V:2] e6B2 | 
[V:3] B3EEFGA | 
[V:4] E,8 | 
[V:5] G,6G,2 | 
[V:1] B2B2c2A2 | 
[V:2] d3ec4 | 
[V:3] B3Ee4 | 
[V:4] z8 | 
[V:5] G,2G,2A,4 | 
[V:1] A2^G^FG4 | 
[V:2] B8 | 
[V:3] e8 | 
[V:4] z8 | 
[V:5] E,8 | 
[V:1] A2E2F4 | 
[V:2] z8 | 
[V:3] z2c2d4 | 
[V:4] A,8 | 
[V:5] z2A,,2D,4 | 
[V:1] F4E3D | 
[V:2] z8 | 
[V:3] d4c4- | 
[V:4] A,4A,4 | 
[V:5] D,4A,,3B,, | 
[V:1] EFG3FED | 
[V:2] e8 | 
[V:3] c2BAB4 | 
[V:4] G,8 | 
[V:5] C,D,E,3F,G,2 | 
[V:1] C8 | 
[V:2] e4e4 | 
[V:3] A4z2E2 | 
[V:4] z4A,4 | 
[V:5] A,2A,,2C,3B,, | 
[V:1] z2D2F3F | 
[V:2] d8 | 
[V:3] G2D2d3c | 
[V:4] _B,6A,2 | 
[V:5] G,,4z2D,2 | 
[V:1] E2D3^CCB, | 
[V:2] z4e4 | 
[V:3] BAA4G2 | 
[V:4] G,2F,2E,4 | 
[V:5] E,2F,2G,2C,2 | 
[V:1] D4z4 | 
[V:2] f6e2 | 
[V:3] A2D2d3c | 
[V:4] D,8 | 
[V:5] (3:2:6F,3G,A,2D,2E,2F,2 | 
[V:1] z8 | 
[V:2] d2c2B4 | 
[V:3] BAA4^G2 | 
[V:4] z8 | 
[V:5] G,2A,2E,4 | 
[V:1] z2E2F4 | 
[V:2] A8 | 
[V:3] A4z2A2 | 
[V:4] A,8 | 
[V:5] z2A,,2D,4 | 
[V:1] F4E3D | 
[V:2] z8 | 
[V:3] d2d2c4- | 
[V:4] A,4A,4 | 
[V:5] D,4A,,3B,, | 
[V:1] EFG3FED | 
[V:2] e8 | 
[V:3] c2BAB4 | 
[V:4] G,8 | 
[V:5] C,D,E,3F,G,2 | 
[V:1] C8 | 
[V:2] e4e4 | 
[V:3] A4z2E2 | 
[V:4] z4A,4 | 
[V:5] A,2A,,2C,3B,, | 
[V:1] z2D2F3F | 
[V:2] d8 | 
[V:3] G2D2d3c | 
[V:4] _B,6A,2 | 
[V:5] G,,4z2D,2 | 
[V:1] E2D3^CCB, | 
[V:2] z4e4 | 
[V:3] BAA4G2 | 
[V:4] G,2F,2E,4 | 
[V:5] E,2F,2G,2C,2 | 
[V:1] D8- | 
[V:2] f6e2 | 
[V:3] (3A2D2E2(3F3GA2 | 
[V:4] D,8- | 
[V:5] F,3E,D,2C,2 | 
[V:1] D8- | 
[V:2] d2c2_B4 | 
[V:3] (3:2:6D3EF2G2D2G2 | 
[V:4] D,8- | 
[V:5] _B,,2A,,2G,,4 | 
[V:1] D8 |]  
[V:2] A8 |]  
[V:3] F8 |]  
[V:4] D,8 |]  
[V:5] D,8 |]  



